src/assets/icons/stroke/alignCenter.svg

<svg xmlns="http://www.w3.org/2000/svg" width="1em" height="1em" fill="none"><path fill="currentColor" d="M3 6h18v2H3V6ZM6 11h12v2H6v-2ZM9 16h6v2H9v-2Z"/></svg>

<svg width="1em" height="1em" viewBox="0 0 24 24" fill="none" xmlns="http://www.w3.org/2000/svg">
<path d="M3 6H21V8H3V6Z" fill="currentColor"/>
<path d="M6 11H18V13H6V11Z" fill="currentColor"/>
<path d="M9 16H15V18H9V16Z" fill="currentColor"/>
</svg>
